X:0561
T:Sir John Whitefoord's.
T:Strathspey.
M:C
L:1/8
Q:1/4=80 "Slow"
I: :| ||
Z:Jack Campin * www.campin.me.uk * 2009
K:G
D |G>AGD  EFG<g |d<BA>G TE2E>F |G>AGD E>FGg  | d>BA>B  G2G :|
c'|b>ga>f g>ed<B|A>cBG   E2E>c'|b>gfa g<eTd>B|TA>GAB   G2G>b|
   g<bg>d egTd>B|A>cBD   E2E>F |G>AGD EFG>g  | d<BTA>B G2G |]
<end>
<start>
